icons/unity-panel/24x24/panel/unity-battery-100.svg

<?xml version="1.0" encoding="UTF-8" standalone="no"?>
<svg
   version="1.0"
   viewBox="0 0 17 24"
   id="svg4"
   sodipodi:docname="unity-battery-100.svg"
   inkscape:version="1.1.1 (3bf5ae0d25, 2021-09-20)"
   xmlns:inkscape="http://www.inkscape.org/namespaces/inkscape"
   xmlns:sodipodi="http://sodipodi.sourceforge.net/DTD/sodipodi-0.dtd"
   xmlns="http://www.w3.org/2000/svg"
   xmlns:svg="http://www.w3.org/2000/svg">
  <defs
     id="defs8" />
  <sodipodi:namedview
     id="namedview6"
     pagecolor="#ffffff"
     bordercolor="#666666"
     borderopacity="1.0"
     inkscape:pageshadow="2"
     inkscape:pageopacity="0.0"
     inkscape:pagecheckerboard="0"
     showgrid="true"
     inkscape:zoom="22.166667"
     inkscape:cx="9.9473683"
     inkscape:cy="16.37594"
     inkscape:window-width="1852"
     inkscape:window-height="1043"
     inkscape:window-x="1434"
     inkscape:window-y="0"
     inkscape:window-maximized="1"
     inkscape:current-layer="svg4">
    <inkscape:grid
       type="xygrid"
       id="grid882" />
  </sodipodi:namedview>
  <path
     id="path2-3"
     style="fill:#ffffff;fill-opacity:1"
     d="M 6 3 L 6 4.0136719 C 5.2331426 4.0312837 4.596604 4.0921864 4.0625 4.3867188 C 3.68672 4.5937187 3.3885094 4.9438125 3.2246094 5.3828125 C 3.059703 5.8208135 3 6.342 3 7 L 3 8 L 3 17 L 3 18 C 3 18.658 3.059703 19.179187 3.2246094 19.617188 C 3.3885094 20.056188 3.68672 20.406281 4.0625 20.613281 C 4.7101686 20.970439 5.4961007 20.98853 6.5 20.996094 L 6.5 21 L 6.9921875 21 L 7 21 L 10 21 L 10.007812 21 L 10.5 21 L 10.5 20.996094 C 11.5039 20.98853 12.289831 20.970439 12.9375 20.613281 C 13.31328 20.406281 13.611491 20.056188 13.775391 19.617188 C 13.9403 19.179187 14 18.658 14 18 L 14 17 L 14 8 L 14 7 C 14 6.342 13.9403 5.8208135 13.775391 5.3828125 C 13.611491 4.9438125 13.31328 4.5937185 12.9375 4.3867188 C 12.403396 4.0921863 11.766858 4.0312837 11 4.0136719 L 11 3 L 6 3 z M 6.9980469 5 L 10.001953 5 C 11.260253 5.015 12.090278 5.0597197 12.455078 5.2617188 C 12.638968 5.3617187 12.741903 5.475375 12.839844 5.734375 C 12.936755 5.994375 13 6.40802 13 7 L 13 8 L 13 17 L 13 18 C 13 18.59198 12.936755 19.005625 12.839844 19.265625 C 12.741903 19.524625 12.638968 19.638281 12.455078 19.738281 C 12.090278 19.94028 11.260253 19.985 10.001953 20 L 10 20 L 7 20 L 6.9980469 20 C 5.7397469 19.985 4.9097219 19.94028 4.5449219 19.738281 C 4.3610319 19.638281 4.2580968 19.524625 4.1601562 19.265625 C 4.0631949 19.005625 4 18.59198 4 18 L 4 17 L 4 8 L 4 7 C 4 6.40802 4.0631949 5.994375 4.1601562 5.734375 C 4.2580968 5.475375 4.3610319 5.3617187 4.5449219 5.2617188 C 4.9097219 5.0597196 5.7397469 5.015 6.9980469 5 z " />
  <path
     id="rect1191"
     style="stroke-width:2;fill:#ffffff;fill-opacity:1"
     d="m 6,6 h 5 c 0.554,0 1,0.446 1,1 v 11 c 0,0.554 -0.446,1 -1,1 H 6 C 5.446,19 5,18.554 5,18 V 7 C 5,6.446 5.446,6 6,6 Z" />
</svg>

<svg version="1.0" viewBox="0 0 17 24" xmlns="http://www.w3.org/2000/svg">
 <path d="m6 3v1.0137c-0.76686 0.017612-1.4034 0.078514-1.9375 0.37305-0.37578 0.207-0.67399 0.55709-0.83789 0.99609-0.16491 0.438-0.22461 0.95919-0.22461 1.6172v1 9 1c0 0.658 0.059703 1.1792 0.22461 1.6172 0.1639 0.439 0.46211 0.78909 0.83789 0.99609 0.64767 0.35716 1.4336 0.37525 2.4375 0.38281v0.003906h0.49219 0.0078125 3 0.007812 0.49219v-0.003906c1.0039-0.007564 1.7898-0.025655 2.4375-0.38281 0.37578-0.207 0.67399-0.55709 0.83789-0.99609 0.16491-0.438 0.22461-0.95919 0.22461-1.6172v-1-9-1c0-0.658-0.0597-1.1792-0.22461-1.6172-0.1639-0.439-0.46211-0.78909-0.83789-0.99609-0.5341-0.29453-1.1706-0.35544-1.9375-0.37305v-1.0137h-5zm0.99805 2h3.0039c1.2583 0.015 2.0883 0.05972 2.4531 0.26172 0.18389 0.1 0.28682 0.21366 0.38477 0.47266 0.096911 0.26 0.16016 0.67364 0.16016 1.2656v1 9 1c0 0.59198-0.063245 1.0056-0.16016 1.2656-0.097941 0.259-0.20088 0.37266-0.38477 0.47266-0.3648 0.202-1.1948 0.24672-2.4531 0.26172h-0.001953-3-0.0019531c-1.2583-0.015-2.0883-0.05972-2.4531-0.26172-0.18389-0.1-0.28683-0.21366-0.38477-0.47266-0.096961-0.26-0.16016-0.67364-0.16016-1.2656v-1-9-1c0-0.59198 0.063195-1.0056 0.16016-1.2656 0.097941-0.259 0.20088-0.37266 0.38477-0.47266 0.3648-0.202 1.1948-0.24672 2.4531-0.26172z" fill="#fff"/>
 <path d="m6 6h5c0.554 0 1 0.446 1 1v11c0 0.554-0.446 1-1 1h-5c-0.554 0-1-0.446-1-1v-11c0-0.554 0.446-1 1-1z" fill="#fff" stroke-width="2"/>
</svg>
